!!!OTL: AUF EINEM BAUM EIN KUCKUCK
!!!ARE: Europa, Mitteleuropa, Deutschland
!!!SCT: F0660
!!!YEM: Copyright 1995, estate of Helmut Schaffrath.
**kern
*ICvox
*Ivox
!! Mixed meters:  3/4; 2/4
*M3/4
*k[f#]
*G:
=1
{4dd
8b
8g
8a
8dd
=2
*M2/4
8dd
8cc
8a
8r}
=3
*M3/4
{8g
16g
16g
8g
8g
8g
16g
16g
=4
*M2/4
8a
16f#
16f#
8d
8r}
=5
*M3/4
{4dd
8b
8g
8a
8dd
=6
*M2/4
8dd
8cc
8a
8r}
=7
{2g
4r}
==
!!!AGN: Staende -, Jaeger - Lied, Scherz, Tier - Geschichte
!!!ONB: ESAC (Essen Associative Code) Database: FINK
!!!AMT: irregular
!!!AIN: vox
!!!EED: Helmut Schaffrath
!!!EEV: 1.0
*-
